src/icons/support-onprem.svg

<svg enable-background="new 0 0 60 60" viewBox="0 0 60 60" xmlns="http://www.w3.org/2000/svg"><circle cx="30" cy="30" fill="#d4ecfc" r="30"/><path d="m2.4 14.4v8.4c0 .7.5 1.2 1.2 1.2h6v-8.4h4.8v8.4h6c.7 0 1.2-.5 1.2-1.2v-8.4l-9.6-9.6zm21.3-3.3-3.3-3.2v-4.3c0-.7-.5-1.2-1.2-1.2s-1.2.5-1.2 1.2v1.9l-5.1-5.1c-.3-.3-.6-.4-.9-.4s-.6.1-.9.3l-10.8 10.8c-.2.3-.3.6-.3.9 0 .7.5 1.2 1.2 1.2.3 0 .6-.1.9-.3l9.9-10 9.9 9.9c.2.2.5.4.9.4.7 0 1.2-.5 1.2-1.2 0-.3-.1-.6-.3-.9z" fill="#25a6f7" transform="translate(18 18)"/></svg>

<?xml version="1.0" encoding="utf-8"?>
<!-- Generator: Adobe Illustrator 20.1.0, SVG Export Plug-In . SVG Version: 6.00 Build 0)  -->
<svg version="1.1" id="Layer_1" xmlns="http://www.w3.org/2000/svg" xmlns:xlink="http://www.w3.org/1999/xlink" x="0px" y="0px"
	 viewBox="0 0 60 60" style="enable-background:new 0 0 60 60;" xml:space="preserve">
<style type="text/css">
	.st0{fill:#D4ECFC;}
	.st1{fill:#25A6F7;}
</style>
<title>HDL/Icon/Standard/Support/onprem</title>
<desc>Created with Sketch.</desc>
<g id="Colors">
	<g id="Support-Icons" transform="translate(-100.000000, -1050.000000)">
		<g id="HDL_x2F_Icon_x2F_Standard_x2F_Support_x2F_onprem" transform="translate(100.000000, 1050.000000)">
			<g id="ICON">
				<circle id="Oval" class="st0" cx="30" cy="30" r="30"/>
				<g id="home" transform="translate(18.000000, 18.000000)">
					<path id="Shape" class="st1" d="M2.4,14.4v8.4c0,0.7,0.5,1.2,1.2,1.2h6v-8.4h4.8V24h6c0.7,0,1.2-0.5,1.2-1.2v-8.4L12,4.8
						L2.4,14.4z M23.7,11.1l-3.3-3.2V3.6c0-0.7-0.5-1.2-1.2-1.2S18,2.9,18,3.6v1.9l-5.1-5.1C12.6,0.1,12.3,0,12,0s-0.6,0.1-0.9,0.3
						L0.3,11.1C0.1,11.4,0,11.7,0,12c0,0.7,0.5,1.2,1.2,1.2c0.3,0,0.6-0.1,0.9-0.3l9.9-10l9.9,9.9c0.2,0.2,0.5,0.4,0.9,0.4
						c0.7,0,1.2-0.5,1.2-1.2C24,11.7,23.9,11.4,23.7,11.1z"/>
				</g>
			</g>
		</g>
	</g>
</g>
</svg>
